symbols/web/power_off/materialsymbolssharp/power_off_wght500gradN25fill1_24px.svg

<svg xmlns="http://www.w3.org/2000/svg" height="24" width="24"><path d="M9.325 20.975V17.85l-3.35-3.35V7.1h1.05v2.75l-5.5-5.475 1.375-1.4L21.025 21.1l-1.375 1.4-4.675-4.675-.3.3v2.85ZM17.3 14.7 8.075 5.475v-2.45h2.15v3.95h3.55v-3.95h2.15v3.95h2.1v6.975Z"/></svg>

<svg xmlns="http://www.w3.org/2000/svg" height="24" width="24"><path d="M19.65 22.5 14.975 17.825 14.675 18.125V20.975H9.325V17.85L5.975 14.525V8.825L1.525 4.375L2.9 2.975L21.025 21.1ZM17.575 15 8.075 5.5V3.025H10.225V6.975H13.775V3.025H15.925V7H18.025V14.5Z"/></svg>
